; generated by Slic3r 1.2.9 on 2019-05-21 at 21:39:19

; external perimeters extrusion width = 0.40mm
; perimeters extrusion width = 0.67mm
; infill extrusion width = 0.67mm
; solid infill extrusion width = 0.67mm
; top infill extrusion width = 0.67mm

M107
M190 S60 ; set bed temperature
M104 S200 ; set temperature
G28 ; home all axes
G1 Z5 F5000 ; lift nozzle

M109 S200 ; wait for temperature to be reached
G21 ; set units to millimeters
G90 ; use absolute coordinates
M82 ; use absolute distances for extrusion
G92 E0
G1 Z0.350 F7800.000
G1 E-5.00000 F2400.00000
G92 E0
G1 X78.179 Y80.183 F7800.000
G1 E5.00000 F2400.00000
G1 X79.596 Y79.098 E5.16235 F1800.000
G1 X80.870 Y78.383 E5.29517
G1 X81.795 Y77.977 E5.38701
G1 X90.295 Y74.977 E6.20664
G1 X91.150 Y74.739 E6.28736
G1 X93.150 Y74.322 E6.47312
G1 X93.907 Y74.210 E6.54272
G1 X105.407 Y73.177 E7.59262
G1 X106.000 Y73.150 E7.64657
G1 X111.686 Y73.153 E8.16359
G1 X127.686 Y73.602 E9.61904 F1800.000
G1 X129.632 Y73.952 E9.79885
G1 X138.632 Y77.012 E10.66321
G1 X139.464 Y77.359 E10.74523
G1 X140.602 Y77.931 E10.86099
G1 X142.442 Y79.301 E11.06953
G1 X143.474 Y80.739 E11.23047
G1 X144.516 Y82.697 E11.43217
G1 X144.804 Y83.284 E11.49164
G1 X148.804 Y92.284 E12.38719
G1 X148.962 Y92.674 E12.42545
G1 X154.035 Y106.380 E13.75434
G1 X154.535 Y107.880 E13.89811
G1 X154.875 Y109.975 E14.09110
G1 X154.871 Y110.702 E14.15726
G1 X154.802 Y112.702 E14.33922
G1 X154.761 Y113.245 E14.38870
G1 X152.830 Y129.745 E15.89928
G1 X152.175 Y131.937 E16.10734
G1 X151.091 Y134.107 E16.32790
G1 X149.680 Y135.991 E16.54191
G1 X141.652 Y143.463 E17.53915
G1 X140.100 Y144.539 E17.71093
G1 X139.253 Y144.912 E17.79505
G1 X137.753 Y145.455 E17.94008
G1 X135.801 Y145.843 E18.12107
G1 X113.801 Y146.843 E20.12358
G1 X106.744 Y146.787 E20.76528
G1 X106.109 Y146.754 E20.82313
G1 X105.173 Y146.632 E20.90890
G1 X78.673 Y141.215 E23.36834
G1 X77.037 Y140.650 E23.52582
G1 X73.809 Y138.968 E23.85675
G1 X72.278 Y137.864 E24.02835
G1 X69.733 Y135.409 E24.34989
G1 X68.408 Y133.605 E24.55343
G1 X67.825 Y132.437 E24.67212
G1 X67.170 Y130.249 E24.87983
G1 X65.170 Y113.249 E26.43629
G1 X65.125 Y112.475 E26.50680
G1 X65.125 Y109.975 E26.73412
G1 X65.530 Y107.694 E26.94475
G1 X71.030 Y92.694 E28.39749
G1 X71.660 Y91.072 E28.55570
G1 X72.040 Y90.254 E28.63775
G1 X76.032 Y82.746 E29.41095
G1 X77.182 Y81.186 E29.58711
G1 X78.136 Y80.226 E29.71025
G1 E24.71025 F2400.00000
G92 E0
G1 X72.751 Y103.466 F7800.000
G1 E5.00000 F2400.00000
G1 X72.731 Y103.028 E5.03990 F1800.000
G1 X72.731 Y101.681 E5.16244
G1 X72.688 Y101.048 E5.22009
G1 X72.688 Y99.002 E5.40616
G1 X72.906 Y98.081 E5.49219
G1 X73.227 Y97.438 E5.55756
G1 X73.261 Y97.293 E5.57108
G1 X73.259 Y95.846 E5.70267
G1 X73.149 Y94.830 E5.79562
G1 X73.356 Y93.680 E5.90183
G1 X73.821 Y92.750 E5.99635
G1 X73.998 Y92.063 E6.06086
G1 X74.551 Y90.957 E6.17331
G1 X74.847 Y90.662 E6.21134
G1 X74.906 Y90.580 E6.22050
G1 X75.496 Y89.401 E6.34032
G1 X76.427 Y88.470 E6.46012
G1 X76.598 Y88.366 E6.47831
G1 X77.107 Y87.857 E6.54374
G1 X77.201 Y87.653 E6.56422
G1 X77.231 Y87.269 E6.59923
G1 X77.231 Y86.502 E6.66895
G1 X77.448 Y85.582 E6.75490
G1 X78.023 Y84.430 E6.87197
G1 X78.105 Y84.325 E6.88409
G1 X78.543 Y83.450 E6.97307
G1 X80.472 Y81.514 E7.22157
G1 X81.247 Y81.127 E7.30037
G1 X81.427 Y80.970 E7.32207
G1 X82.607 Y80.380 E7.44198
G1 X83.527 Y80.163 E7.52798
G1 X84.973 Y80.163 E7.65947
G1 X85.894 Y80.380 E7.74549
G1 X86.151 Y80.509 E7.77159
G1 X86.549 Y80.444 E7.80828
G1 X86.864 Y80.129 E7.84875
G1 X86.996 Y79.901 E7.87273
G1 X87.927 Y78.970 E7.99252
G1 X89.211 Y78.328 E8.12300
G1 X89.445 Y78.273 E8.14491
G1 X89.757 Y78.117 E8.17657
G1 X89.927 Y77.970 E8.19708
G1 X91.202 Y77.332 E8.32665
G1 X92.343 Y77.125 E8.43214
G1 X92.617 Y77.153 E8.45713
G1 X92.792 Y77.121 E8.47336
G1 X93.056 Y76.989 E8.50014
G1 X93.861 Y76.776 E8.57595
G1 X94.890 Y76.714 E8.66962
G1 X95.595 Y76.740 E8.73384
G1 X96.933 Y76.740 E8.85548
G1 X99.245 Y76.673 E9.06581
G1 X99.580 Y76.999 E9.10830
G1 X99.880 Y77.166 E9.13946
G1 X100.037 Y77.199 E9.15407
G1 X100.327 Y77.185 E9.18044
G1 X101.480 Y77.428 E9.28761
G1 X101.690 Y77.401 E9.30687
G1 X103.376 Y76.566 E9.47795
G1 X103.461 Y76.504 E9.48750
G1 X104.617 Y75.925 E9.60508
G1 X105.563 Y75.708 E9.69333
G1 X107.067 Y75.740 E9.83008
G1 X110.905 Y75.740 E10.17905
G1 X111.852 Y75.696 E10.26526
G1 X112.857 Y75.913 E10.35877
G1 X113.400 Y76.170 E10.41343
G1 X114.293 Y76.330 E10.49586
G1 X115.573 Y76.970 E10.62609
G1 X116.015 Y77.412 E10.68288
G1 X116.413 Y77.477 E10.71957
G1 X116.713 Y77.327 E10.75000
G1 X117.013 Y77.261 E10.77793
G1 X117.590 Y76.972 E10.83668
G1 X118.537 Y76.740 E10.92527
G1 X119.093 Y76.470 E10.98149
G1 X119.987 Y76.253 E11.06515
G1 X121.480 Y76.233 E11.20088
G1 X126.624 Y76.234 E11.66863
G1 X127.633 Y76.123 E11.76096
G1 X128.791 Y76.329 E11.86791
G1 X130.073 Y76.970 E11.99828
G1 X130.243 Y77.118 E12.01875
G1 X131.031 Y77.511 E12.09880
G1 X131.370 Y77.850 E12.14239
G1 X131.452 Y77.909 E12.15155
G1 X132.573 Y78.470 E12.26559
G1 X133.423 Y79.320 E12.37486
G1 X133.732 Y79.409 E12.40410
G1 X134.586 Y79.216 E12.48377
G1 X135.540 Y79.238 E12.57050
G1 X136.907 Y79.212 E12.69484
G1 X137.874 Y79.430 E12.78497
G1 X140.030 Y80.511 E13.00429
G1 X140.963 Y81.443 E13.12421
G1 X141.845 Y83.219 E13.30446
G1 X142.005 Y83.402 E13.32655
G1 X142.812 Y85.016 E13.49066
G1 X142.812 Y86.934 E13.66507
G1 X142.467 Y87.624 E13.73521
G1 X142.531 Y88.022 E13.77190
G1 X144.955 Y90.452 E14.08395
G1 X145.838 Y92.213 E14.26308
G1 X146.005 Y92.402 E14.28599
G1 X146.648 Y93.688 E14.41673
G1 X146.853 Y94.859 E14.52482
G1 X146.738 Y95.863 E14.61678
G1 X146.741 Y97.302 E14.74764
G1 X146.774 Y97.441 E14.76058
G1 X147.094 Y98.079 E14.82552
G1 X147.312 Y99.001 E14.91164
G1 X147.312 Y101.048 E15.09778
G1 X147.269 Y101.681 E15.15542
G1 X147.269 Y103.609 E15.33081
G1 X147.456 Y103.911 E15.36309
G1 X147.974 Y104.170 E15.41570
G1 X148.791 Y104.329 E15.49140
G1 X150.073 Y104.970 E15.62174
G1 X151.005 Y105.902 E15.74158
G1 X151.646 Y107.185 E15.87201
G1 X151.776 Y107.915 E15.93946
G1 X152.094 Y108.580 E16.00648
G1 X152.312 Y109.501 E16.09257
G1 X152.312 Y110.601 E16.19259
G1 X152.237 Y111.351 E16.26110
G1 X152.247 Y112.924 E16.40412
G1 X152.029 Y113.861 E16.49157
G1 X151.460 Y115.000 E16.60742
G1 X150.039 Y116.446 E16.79174
G1 X149.157 Y116.887 E16.88141
G1 X148.993 Y117.378 E16.92849
G1 X149.144 Y117.679 E16.95907
G1 X149.351 Y118.829 E17.06537
G1 X149.278 Y119.503 E17.12700
G1 X149.310 Y119.680 E17.14336
G1 X149.503 Y120.064 E17.18243
G1 X149.720 Y120.953 E17.26566
G1 X149.738 Y121.923 E17.35383
G1 X149.771 Y122.060 E17.36663
G1 X150.042 Y122.601 E17.42165
G1 X150.258 Y123.562 E17.51121
G1 X150.237 Y124.515 E17.59786
G1 X150.238 Y128.080 E17.92205
G1 X150.353 Y129.101 E18.01544
G1 X150.147 Y130.263 E18.12283
G1 X149.504 Y131.548 E18.25345
G1 X149.357 Y131.718 E18.27388
G1 X149.201 Y132.031 E18.30571
G1 X149.146 Y132.265 E18.32759
G1 X148.504 Y133.548 E18.45803
G1 X147.573 Y134.479 E18.57778
G1 X147.370 Y134.599 E18.59913
G1 X146.527 Y135.434 E18.70704
G1 X145.590 Y135.902 E18.80232
G1 X145.508 Y135.961 E18.81151
G1 X145.032 Y136.437 E18.87274
G1 X144.243 Y136.832 E18.95292
G1 X144.073 Y136.979 E18.97342
G1 X142.791 Y137.621 E19.10374
G1 X142.600 Y137.654 E19.12135
G1 X142.363 Y137.832 E19.14828
G1 X141.505 Y139.547 E19.32267
G1 X141.345 Y139.730 E19.34482
G1 X140.959 Y140.502 E19.42329
G1 X140.548 Y140.912 E19.47606
G1 X140.477 Y141.019 E19.48769
G1 X139.544 Y141.952 E19.60766
G1 X138.346 Y142.550 E19.72940
G1 X137.596 Y142.718 E19.79933
G1 X136.894 Y143.069 E19.87070
G1 X135.973 Y143.286 E19.95673
G1 X134.527 Y143.286 E20.08823
G1 X133.606 Y143.069 E20.17426
G1 X132.427 Y142.480 E20.29409
G1 X132.248 Y142.322 E20.31580
G1 X130.474 Y141.435 E20.49614
G1 X128.540 Y139.503 E20.74470
G1 X127.927 Y138.276 E20.86939
G1 X127.295 Y138.174 E20.92759
G1 X126.531 Y138.938 E21.02587
G1 X125.577 Y139.415 E21.12289
G1 X125.495 Y139.474 E21.13205
G1 X125.031 Y139.938 E21.19171
G1 X124.243 Y140.332 E21.27180
G1 X124.162 Y140.391 E21.28096
G1 X123.573 Y140.979 E21.35665
G1 X122.288 Y141.622 E21.48733
G1 X122.053 Y141.677 E21.50920
G1 X121.385 Y142.011 E21.57719
G1 X120.393 Y142.249 E21.66994
G1 X118.921 Y142.972 E21.81900
G1 X118.060 Y143.188 E21.89975
G1 X117.593 Y143.202 E21.94226
G1 X117.460 Y143.235 E21.95467
G1 X116.869 Y143.531 E22.01478
G1 X115.894 Y143.747 E22.10563
G1 X115.634 Y143.741 E22.12927
G1 X115.484 Y143.774 E22.14325
G1 X114.801 Y144.115 E22.21263
G1 X113.668 Y144.324 E22.31737
G1 X112.676 Y144.224 E22.40803
G1 X108.017 Y144.213 E22.83174
G1 X107.013 Y144.229 E22.92303
G1 X105.902 Y144.181 E23.02414
G1 X105.068 Y143.966 E23.10248
G1 X104.677 Y143.771 E23.14222
G1 X104.524 Y143.737 E23.15642
G1 X104.128 Y143.750 E23.19246
G1 X103.137 Y143.534 E23.28473
G1 X102.436 Y143.192 E23.35560
G1 X101.602 Y142.993 E23.43360
G1 X101.024 Y142.714 E23.49192
G1 X100.107 Y142.497 E23.57767
G1 X96.224 Y140.553 E23.97251
G1 X96.126 Y140.521 E23.98189
G1 X94.966 Y139.941 E24.09976
G1 X94.464 Y139.439 E24.16434
G1 X94.383 Y139.380 E24.17350
G1 X93.478 Y138.928 E24.26545
G1 X90.760 Y136.216 E24.61458
G1 X90.242 Y136.216 E24.66165
G1 X89.017 Y137.423 E24.81802
G1 X87.909 Y137.978 E24.93073
G1 X86.964 Y138.209 E25.01921
G1 X86.426 Y138.469 E25.07353
G1 X85.576 Y138.685 E25.15326
G1 X84.510 Y138.724 E25.25023
G1 X80.888 Y138.712 E25.57959
G1 X79.884 Y138.828 E25.67149
G1 X78.714 Y138.623 E25.77950
G1 X77.428 Y137.980 E25.91029
G1 X77.238 Y137.813 E25.93327
G1 X74.472 Y136.435 E26.21423
G1 X72.159 Y134.114 E26.51222
G1 X71.928 Y133.980 E26.53654
G1 X70.995 Y133.048 E26.65640
G1 X69.859 Y130.776 E26.88736
G1 X69.651 Y129.643 E26.99210
G1 X69.763 Y128.442 E27.10179
G1 X69.754 Y125.337 E27.38410
G1 X69.717 Y124.099 E27.49674
G1 X69.933 Y123.112 E27.58867
G1 X70.228 Y122.521 E27.64865
G1 X70.261 Y122.386 E27.66137
G1 X70.281 Y121.446 E27.74685
G1 X70.498 Y120.563 E27.82948
G1 X70.722 Y120.115 E27.87504
G1 X70.755 Y119.956 E27.88985
G1 X70.656 Y118.758 E27.99914
G1 X70.867 Y117.658 E28.10095
G1 X71.087 Y117.219 E28.14567
G1 X70.923 Y116.727 E28.19274
G1 X69.428 Y115.980 E28.34478
G1 X68.495 Y115.048 E28.46465
G1 X67.853 Y113.763 E28.59525
G1 X67.648 Y112.601 E28.70251
G1 X67.764 Y111.550 E28.79873
G1 X67.688 Y110.560 E28.88899
G1 X67.688 Y109.502 E28.98521
G1 X67.906 Y108.581 E29.07124
G1 X68.308 Y107.777 E29.15297
G1 X68.482 Y107.079 E29.21840
G1 X69.046 Y105.952 E29.33300
G1 X69.978 Y105.020 E29.45283
G1 X70.844 Y104.587 E29.54091
G1 X70.956 Y104.498 E29.55388
G1 X72.155 Y103.898 E29.67583
G1 X72.469 Y103.833 E29.70494
G1 X72.714 Y103.514 E29.74155
G1 X73.390 Y103.993 F7800.000
G1 X73.390 Y103.596 E29.77767 F1800.000
G1 X73.356 Y103.020 E29.83014
G1 X73.356 Y101.645 E29.95517
G1 X73.313 Y101.037 E30.01061
G1 X73.313 Y99.074 E30.18904
G1 X73.497 Y98.295 E30.26183
G1 X73.853 Y97.584 E30.33418
G1 X73.886 Y97.440 E30.34757
G1 X73.884 Y95.788 E30.49782
G1 X73.780 Y94.852 E30.58345
G1 X73.955 Y93.879 E30.67332
G1 X74.411 Y92.967 E30.76602
G1 X74.588 Y92.280 E30.83053
G1 X75.065 Y91.328 E30.92741
G1 X75.361 Y91.032 E30.96545
G1 X75.420 Y90.950 E30.97461
G1 X76.009 Y89.772 E31.09442
G1 X76.797 Y88.983 E31.19579
G1 X76.969 Y88.880 E31.21399
G1 X77.331 Y88.517 E31.26059
G1 X77.611 Y88.377 E31.28905
G1 X77.795 Y88.103 E31.31911
G1 X77.856 Y87.304 E31.39190
G1 X77.856 Y86.575 E31.45825
G1 X78.039 Y85.796 E31.53098
G1 X78.537 Y84.800 E31.63220
G1 X78.619 Y84.696 E31.64432
G1 X79.057 Y83.820 E31.73330
G1 X80.842 Y82.028 E31.96335
G1 X81.617 Y81.641 E32.04216
G1 X81.797 Y81.484 E32.06386
G1 X82.821 Y80.972 E32.16793
G1 X83.600 Y80.788 E32.24070
G1 X84.900 Y80.788 E32.35895
G1 X85.679 Y80.972 E32.43174
G1 X86.277 Y81.271 E32.49249
G1 X86.675 Y81.206 E32.52918
G1 X87.377 Y80.500 E32.61971
G1 X87.509 Y80.272 E32.64369
G1 X88.298 Y79.483 E32.74505
G1 X89.409 Y78.927 E32.85807
G1 X89.644 Y78.873 E32.87997
G1 X90.127 Y78.631 E32.92910
G1 X90.298 Y78.483 E32.94961
G1 X91.402 Y77.931 E33.06185
G1 X92.367 Y77.755 E33.15111
G1 X92.733 Y77.793 E33.18456
G1 X92.909 Y77.761 E33.20079
G1 X93.278 Y77.577 E33.23831
G1 X93.960 Y77.396 E33.30245
G1 X94.907 Y77.339 E33.38873
G1 X95.581 Y77.365 E33.45012
G1 X96.943 Y77.365 E33.57391
G1 X98.998 Y77.305 E33.76090
G1 X99.293 Y77.571 E33.79697
G1 X99.747 Y77.798 E33.84312
G1 X99.904 Y77.831 E33.85772
G1 X100.276 Y77.813 E33.89164
G1 X101.141 Y77.995 E33.97198
G1 X101.373 Y78.111 E33.99552
G1 X101.667 Y78.111 E34.02234
G1 X103.746 Y77.079 E34.23334
G1 X103.831 Y77.017 E34.24290
G1 X104.830 Y76.518 E34.34446
G1 X105.630 Y76.334 E34.41914
G1 X107.057 Y76.365 E34.54891
G1 X110.919 Y76.365 E34.90004
G1 X111.798 Y76.324 E34.98003
G1 X112.648 Y76.507 E35.05916
G1 X113.201 Y76.769 E35.11482
G1 X114.094 Y76.929 E35.19726
G1 X115.203 Y77.484 E35.31006
G1 X115.892 Y78.172 E35.39859
G1 X116.290 Y78.237 E35.43528
G1 X116.911 Y77.927 E35.49840
G1 X117.211 Y77.861 E35.52634
G1 X117.807 Y77.562 E35.58699
G1 X118.744 Y77.344 E35.67447
G1 X119.309 Y77.061 E35.73195
G1 X120.066 Y76.877 E35.80274
G1 X121.483 Y76.858 E35.93158
G1 X126.686 Y76.859 E36.40467
G1 X127.613 Y76.754 E36.48950
G1 X128.592 Y76.928 E36.57999
G1 X129.703 Y77.484 E36.69291
G1 X129.873 Y77.631 E36.71339
G1 X130.661 Y78.025 E36.79344
G1 X131.000 Y78.364 E36.83703
G1 X131.081 Y78.423 E36.84619
G1 X132.203 Y78.984 E36.96022
G1 X132.991 Y79.772 E37.06159
G1 X133.098 Y79.986 E37.08336
G1 X133.589 Y80.150 E37.13043
G1 X133.836 Y80.027 E37.15552
G1 X134.650 Y79.843 E37.23139
G1 X135.534 Y79.863 E37.31182
G1 X136.845 Y79.839 E37.43097
G1 X137.663 Y80.023 E37.50724
G1 X139.660 Y81.025 E37.71043
G1 X140.450 Y81.814 E37.81190
G1 X141.331 Y83.589 E37.99216
G1 X141.491 Y83.772 E38.01424
G1 X142.187 Y85.163 E38.15572
G1 X142.187 Y86.786 E38.30329
G1 X141.706 Y87.747 E38.40097
G1 X141.771 Y88.145 E38.43767
G1 X144.441 Y90.822 E38.78145
G1 X145.325 Y92.583 E38.96060
G1 X145.491 Y92.772 E38.98349
G1 X146.048 Y93.886 E39.09672
G1 X146.222 Y94.876 E39.18819
G1 X146.112 Y95.807 E39.27338
G1 X146.116 Y97.449 E39.42273
G1 X146.150 Y97.589 E39.43582
G1 X146.503 Y98.294 E39.50747
G1 X146.687 Y99.074 E39.58034
G1 X146.687 Y101.037 E39.75882
G1 X146.644 Y101.645 E39.81425
G1 X146.644 Y103.502 E39.98314
G1 X146.628 Y104.038 E40.03191
G1 X146.919 Y104.399 E40.07405
G1 X147.101 Y104.433 E40.09089
G1 X147.860 Y104.798 E40.16749
G1 X148.592 Y104.928 E40.23508
G1 X149.703 Y105.483 E40.34797
G1 X150.491 Y106.272 E40.44938
G1 X151.047 Y107.383 E40.56235
G1 X151.176 Y108.113 E40.62979
G1 X151.503 Y108.795 E40.69846
G1 X151.687 Y109.574 E40.77130
G1 X151.687 Y110.582 E40.86293
G1 X151.611 Y111.317 E40.93009
G1 X151.621 Y112.855 E41.06996
G1 X151.437 Y113.647 E41.14395
G1 X150.946 Y114.630 E41.24387
G1 X150.517 Y115.060 E41.29911
G1 X150.457 Y115.144 E41.30854
G1 X149.669 Y115.932 E41.40985
G1 X148.654 Y116.440 E41.51297
G1 X148.393 Y116.497 E41.53732
G1 X148.129 Y117.048 E41.59288
G1 X148.545 Y117.878 E41.67728
G1 X148.720 Y118.852 E41.76722
G1 X148.637 Y119.619 E41.83737
G1 X148.669 Y119.796 E41.85372
G1 X148.912 Y120.281 E41.90312
G1 X149.097 Y121.034 E41.97354
G1 X149.113 Y122.066 E42.06746
G1 X149.147 Y122.208 E42.08069
G1 X149.449 Y122.812 E42.14213
G1 X149.632 Y123.625 E42.21791
G1 X149.612 Y124.509 E42.29827
G1 X149.613 Y128.147 E42.62906
G1 X149.721 Y129.081 E42.71459
G1 X149.547 Y130.065 E42.80545
G1 X148.991 Y131.178 E42.91859
G1 X148.843 Y131.348 E42.93903
G1 X148.601 Y131.833 E42.98833
G1 X148.546 Y132.067 E43.01018
G1 X147.991 Y133.178 E43.12316
G1 X147.202 Y133.966 E43.22449
G1 X147.000 Y134.085 E43.24586
G1 X146.157 Y134.920 E43.35375
G1 X145.220 Y135.388 E43.44903
G1 X145.138 Y135.448 E43.45822
G1 X144.661 Y135.924 E43.51946
G1 X143.873 Y136.318 E43.59962
G1 X143.702 Y136.466 E43.62013
G1 X142.592 Y137.021 E43.73301
G1 X141.979 Y137.130 E43.78968
G1 X141.687 Y137.479 E43.83099
G1 X141.687 Y137.786 E43.85897
G1 X140.991 Y139.177 E44.00034
G1 X140.831 Y139.360 E44.02250
G1 X140.445 Y140.132 E44.10095
G1 X140.035 Y140.542 E44.15373
G1 X139.963 Y140.649 E44.16537
G1 X139.174 Y141.438 E44.26688
G1 X138.139 Y141.955 E44.37206
G1 X137.465 Y142.096 E44.43473
